X: 4315
T: Miss Ash's Delight
N: Pub: J. Walsh, London, 1748
Z: 2012 John Chambers <jc:trillian.mit.edu>
M: 2/4
L: 1/8
K: D
%
V: 1
!segno!|:\
d2d>d | Tc2B2 | TA>GA>F | G>AB>c |\
d2d>d | Tc2B2 | TA>GA>F | G2Hz2 :|
d2e>f | g2g2 | a>gTf>e | d2D2 |\
d2e>f | g>a Tf>g | a>gTf>e | d2z2 !segno!|]
%
V: 2 clef=bass middle=d
|:\
G2G2 | G2G2 | G2G2 | G2G2 | G2G2 | G2G2 | G2G2 | G2Hz2 :|
G2G2 | G2G2 | G2G2 | G2G2 | G2G2 | G2G2 | G2G2 | G2 z2 |]
%%begintext align
First Cu. turn Right hands single and cast off .|
turn Left hands single and cast up :|
First Cu. gallop down the middle, cast off and turn .|
%%endtext

%%sep 1 1 500
%%sep 1 1 500

